elusive/cc.svg

<?xml version="1.0" encoding="UTF-8" standalone="no"?>
<!-- Generator: IcoMoon.io -->

<svg
   xmlns:dc="http://purl.org/dc/elements/1.1/"
   xmlns:cc="http://creativecommons.org/ns#"
   xmlns:rdf="http://www.w3.org/1999/02/22-rdf-syntax-ns#"
   xmlns:svg="http://www.w3.org/2000/svg"
   xmlns="http://www.w3.org/2000/svg"
   xmlns:sodipodi="http://sodipodi.sourceforge.net/DTD/sodipodi-0.dtd"
   xmlns:inkscape="http://www.inkscape.org/namespaces/inkscape"
   id="svg2"
   data-tags="remove-circle, cancel, close, remove, delete"
   height="1200"
   viewBox="0 0 1200 1200"
   width="1200"
   version="1.1"
   data-du=""
   inkscape:version="0.48.4 r9939"
   sodipodi:docname="cc.svg">
  <defs
     id="defs3042" />
  <sodipodi:namedview
     pagecolor="#ffffff"
     bordercolor="#666666"
     borderopacity="1"
     objecttolerance="10"
     gridtolerance="10"
     guidetolerance="10"
     inkscape:pageopacity="0"
     inkscape:pageshadow="2"
     inkscape:window-width="1535"
     inkscape:window-height="876"
     id="namedview3040"
     showgrid="false"
     inkscape:zoom="0.37249375"
     inkscape:cx="1001.9463"
     inkscape:cy="420.03329"
     inkscape:window-x="65"
     inkscape:window-y="24"
     inkscape:window-maximized="1"
     inkscape:current-layer="svg2" />
  <metadata
     id="metadata62">
    <rdf:RDF>
      <cc:Work
         rdf:about="">
        <dc:format>image/svg+xml</dc:format>
        <dc:type
           rdf:resource="http://purl.org/dc/dcmitype/StillImage" />
        <dc:title />
      </cc:Work>
    </rdf:RDF>
  </metadata>
  <path
     d="M 600 99.53125 L 0 216.71875 L 0 983.28125 L 600 1100.4688 L 1200 983.28125 L 1200 216.71875 L 600 99.53125 z M 381.84375 366.09375 C 474.88265 366.09375 555.28675 420.44097 592.96875 499.09375 L 479.34375 499.09375 C 454.09535 474.68771 419.73475 459.625 381.84375 459.625 C 304.33865 459.625 241.53125 522.46384 241.53125 599.96875 C 241.53125 677.47367 304.33855 740.28125 381.84375 740.28125 C 419.70985 740.28125 454.0687 725.31511 479.3125 700.9375 L 592.9375 700.9375 C 555.2436 779.57281 474.85975 833.875 381.84375 833.875 C 252.66885 833.875 147.96875 729.14364 147.96875 599.96875 C 147.96895 470.79388 252.66895 366.09375 381.84375 366.09375 z M 840.9375 366.09375 C 933.9764 366.09375 1014.3492 420.44097 1052.0312 499.09375 L 938.4375 499.09375 C 913.1889 474.68771 878.8284 459.625 840.9375 459.625 C 763.4322 459.625 700.59375 522.46384 700.59375 599.96875 C 700.59375 677.47367 763.4322 740.28125 840.9375 740.28125 C 878.8034 740.28125 913.09995 725.31511 938.34375 700.9375 L 1052 700.9375 C 1014.3061 779.57281 933.9533 833.875 840.9375 833.875 C 711.7626 833.875 607.0625 729.14364 607.0625 599.96875 C 607.0625 470.79388 711.7626 366.09375 840.9375 366.09375 z "
     id="path3061" />
</svg>

<?xml version="1.0" encoding="utf-8"?>
<!-- Generator: Adobe Illustrator 16.0.0, SVG Export Plug-In . SVG Version: 6.00 Build 0)  -->
<!DOCTYPE svg PUBLIC "-//W3C//DTD SVG 1.1//EN" "http://www.w3.org/Graphics/SVG/1.1/DTD/svg11.dtd">
<svg version="1.1"
	 id="svg2" xmlns:dc="http://purl.org/dc/elements/1.1/" xmlns:cc="http://creativecommons.org/ns#" xmlns:rdf="http://www.w3.org/1999/02/22-rdf-syntax-ns#" xmlns:svg="http://www.w3.org/2000/svg" xmlns:sodipodi="http://sodipodi.sourceforge.net/DTD/sodipodi-0.dtd" xmlns:inkscape="http://www.inkscape.org/namespaces/inkscape" sodipodi:docname="cc.svg" inkscape:version="0.48.4 r9939"
	 xmlns="http://www.w3.org/2000/svg" xmlns:xlink="http://www.w3.org/1999/xlink" x="0px" y="0px" width="1200px" height="1200px"
	 viewBox="0 0 1200 1200" enable-background="new 0 0 1200 1200" xml:space="preserve">
<sodipodi:namedview  inkscape:cy="420.03329" inkscape:cx="1001.9463" inkscape:zoom="0.37249375" showgrid="false" id="namedview3040" guidetolerance="10" gridtolerance="10" objecttolerance="10" borderopacity="1" bordercolor="#666666" pagecolor="#ffffff" inkscape:current-layer="svg2" inkscape:window-maximized="1" inkscape:window-y="24" inkscape:window-height="876" inkscape:window-width="1535" inkscape:pageshadow="2" inkscape:pageopacity="0" inkscape:window-x="65">
	</sodipodi:namedview>
<path id="path3061" d="M600,99.531L0,216.719v766.562l600,117.188l600-117.188V216.719L600,99.531z M381.844,366.094
	c93.039,0,173.443,54.348,211.125,133H479.344c-25.248-24.406-59.609-39.469-97.5-39.469c-77.505,0-140.312,62.839-140.312,140.344
	s62.807,140.312,140.312,140.312c37.866,0,72.225-14.966,97.469-39.344h113.625c-37.694,78.636-118.078,132.938-211.094,132.938
	c-129.175,0-233.875-104.731-233.875-233.906S252.669,366.094,381.844,366.094z M840.938,366.094
	c93.039,0,173.412,54.348,211.094,133H938.438c-25.249-24.406-59.609-39.469-97.5-39.469c-77.505,0-140.344,62.839-140.344,140.344
	s62.839,140.312,140.344,140.312c37.866,0,72.162-14.966,97.406-39.344H1052c-37.694,78.636-118.047,132.938-211.062,132.938
	c-129.175,0-233.875-104.731-233.875-233.906S711.763,366.094,840.938,366.094z"/>
</svg>
